!!!OTL: Turnlied.
!!!OTL-incipit:WER GLEICHET UNS TURNERN
!!!ARE: Europa, Mitteleuropa, Deutschland
!!!SCT: F0359
!!!TXL: @@DE
!!!YEM: Copyright 1995, estate of Helmut Schaffrath.
**kern	**text
*ICvox	*
*clefG2	*
*M3/8	*
*k[b-]	*
*F:	*
!LO:TX:a:t=Froh.	!
!LO:TX:a:t=Einſtimmig oder dreiſtimmig, dann auch ohne Begleitung.	!
!LO:TX:a:t=P:only the highest voice encoded:problem	!
{8c	1._Wer
=1	=1
8.f	glei-
16e	-chet
8f	uns
=2	=2
8.g	Turnern,
16f	.
8g	uns
=3	=3
8a	fro-
8f	-hen?
8r	.
=4	=4
4r}	.
{16fL	Mag
16gJ	.
=5	=5
4a	Wind
8a	und
=6	=6
8.b-/	Wetter
16a	.
8b-/	uns
=7	=7
8.cc/	dro-
16dd/	-hen
16cc/	in
16b-/	dem
=8	=8
4a}	Feld,
{8c	1._Wer
=9	=9
8.f	glei-
16e	-chet
8f	uns
=10	=10
8.g	Turnern,
16f	.
8g	uns
=11	=11
8a	fro-
8f	-hen?
8r	.
=12	=12
4r}	.
{16fL	Mag
16gJ	.
=13	=13
4a	Wind
8a	und
=14	=14
8.b-/	Wetter
16a/	.
8b-/	uns
=15	=15
8.cc/	dro-
16dd/	-hen
16cc/	in
16b-/	dem
=16	=16
4a}	Feld,
{16fL	wir
16aJ	.
=17	=17
8cc/	gehen
8cc/	.
8cc/	und
=18	=18
8.a	wagen,
16g	.
8a	die
=19	=19
8b-/	Ar-
8b-/	-beit
8b-/	ʒu
=20	=20
8.g	tra-
16f}	-gen;
{8g	es
=21	=21
8a	kümmert
8a	.
8g	uns
=22	=22
4a	nicht,
16cc/L	was
16b-J	.
=23	=23
8a	um
8a	uns
8g	geſchicht.
=24	=24
4f}	.
{16fL	wir
16aJ	.
=25	=25
8cc/	gehen
8cc/	.
8cc/	und
=26	=26
8.a	wagen,
16g	.
8a	die
=27	=27
8b-/	Ar-
8b-/	-beit
8b-/	ʒu
=28	=28
8.g	tra-
16f}	-gen;
{8g	es
=29	=29
8a	kümmert
8a	.
8g	uns
=30	=30
4a	nicht,
16cc/L	was
16b-J	.
=31	=31
8a	um
8a	uns
8g	geſchicht.
=32	=32
4f}	.
==	==
!!!AGN: Jugend - Lied, Turner - Lied
!!!ONB: ESAC (Essen Associative Code) Database: FINK
!!!AMT: simple triple
!!!AIN: vox
!!!EED: Helmut Schaffrath
!!!EEV: 1.0
!!Text: G. F. August
!!!GTL: Jugendlieder
!!!source: Musikalischer Hausschatz der Deutschen. Eine Sammlung von über 1000 Liedern und Gesängen mit Singstimmen und Klavierbegleitung. Leipzig, Litterarisches Verlags-Haus.
!!!page: 212
!!!URL-scan: https://www.digitale-sammlungen.de/en/view/bsb11144622?page=210,211
!!!ENC: Anna Maria Matuszewska
!!!EEV: 2024/30/07
*-	*-
